flaticon/grooming/earbuds-1.svg

<svg xmlns="http://www.w3.org/2000/svg" width="32" height="32" viewBox="0 0 24 24">
    <path d="M 22.800781 8.839844 L 22.398438 8.839844 L 22.398438 4.347656 C 23.089844 4.15625 23.601562 3.496094 23.601562 2.71875 C 23.601562 1.921875 23.039062 0 22 0 C 20.960938 0 20.398438 1.921875 20.398438 2.71875 C 20.398438 3.496094 20.910156 4.15625 21.601562 4.347656 L 21.601562 8.839844 L 18.398438 8.839844 L 18.398438 4.347656 C 19.089844 4.15625 19.601562 3.496094 19.601562 2.71875 C 19.601562 1.921875 19.039062 0 18 0 C 16.960938 0 16.398438 1.921875 16.398438 2.71875 C 16.398438 3.496094 16.910156 4.15625 17.601562 4.347656 L 17.601562 8.839844 L 14.398438 8.839844 L 14.398438 4.347656 C 15.089844 4.15625 15.601562 3.496094 15.601562 2.71875 C 15.601562 1.921875 15.039062 0 14 0 C 12.960938 0 12.398438 1.921875 12.398438 2.71875 C 12.398438 3.496094 12.910156 4.15625 13.601562 4.347656 L 13.601562 8.839844 L 10.398438 8.839844 L 10.398438 4.347656 C 11.089844 4.15625 11.601562 3.496094 11.601562 2.71875 C 11.601562 1.921875 11.039062 0 10 0 C 8.960938 0 8.398438 1.921875 8.398438 2.71875 C 8.398438 3.496094 8.910156 4.15625 9.601562 4.347656 L 9.601562 8.839844 L 6.398438 8.839844 L 6.398438 4.347656 C 7.089844 4.15625 7.601562 3.496094 7.601562 2.71875 C 7.601562 1.921875 7.039062 0 6 0 C 4.960938 0 4.398438 1.921875 4.398438 2.71875 C 4.398438 3.496094 4.910156 4.15625 5.601562 4.347656 L 5.601562 8.839844 L 2.398438 8.839844 L 2.398438 4.347656 C 3.089844 4.15625 3.601562 3.496094 3.601562 2.71875 C 3.601562 1.921875 3.039062 0 2 0 C 0.960938 0 0.398438 1.921875 0.398438 2.71875 C 0.398438 3.496094 0.910156 4.15625 1.601562 4.347656 L 1.601562 8.839844 L 1.199219 8.839844 C 0.558594 8.839844 0 9.359375 0 10.039062 L 0 22.800781 C 0 23.441406 0.519531 24 1.199219 24 L 22.800781 24 C 23.441406 24 24 23.480469 24 22.800781 L 24 10.039062 C 24 9.398438 23.480469 8.839844 22.800781 8.839844 Z M 21.199219 2.71875 C 21.199219 1.839844 21.800781 0.800781 22 0.800781 C 22.199219 0.800781 22.800781 1.839844 22.800781 2.71875 C 22.800781 3.199219 22.441406 3.601562 22 3.601562 C 21.558594 3.601562 21.199219 3.199219 21.199219 2.71875 Z M 17.199219 2.71875 C 17.199219 1.839844 17.800781 0.800781 18 0.800781 C 18.199219 0.800781 18.800781 1.839844 18.800781 2.71875 C 18.800781 3.199219 18.441406 3.601562 18 3.601562 C 17.558594 3.601562 17.199219 3.199219 17.199219 2.71875 Z M 13.199219 2.71875 C 13.199219 1.839844 13.800781 0.800781 14 0.800781 C 14.199219 0.800781 14.800781 1.839844 14.800781 2.71875 C 14.800781 3.199219 14.441406 3.601562 14 3.601562 C 13.558594 3.601562 13.199219 3.199219 13.199219 2.71875 Z M 9.199219 2.71875 C 9.199219 1.839844 9.800781 0.800781 10 0.800781 C 10.199219 0.800781 10.800781 1.839844 10.800781 2.71875 C 10.800781 3.199219 10.441406 3.601562 10 3.601562 C 9.558594 3.601562 9.199219 3.199219 9.199219 2.71875 Z M 5.199219 2.71875 C 5.199219 1.839844 5.800781 0.800781 6 0.800781 C 6.199219 0.800781 6.800781 1.839844 6.800781 2.71875 C 6.800781 3.199219 6.441406 3.601562 6 3.601562 C 5.558594 3.601562 5.199219 3.199219 5.199219 2.71875 Z M 1.199219 2.71875 C 1.199219 1.839844 1.800781 0.800781 2 0.800781 C 2.199219 0.800781 2.800781 1.839844 2.800781 2.71875 C 2.800781 3.199219 2.441406 3.601562 2 3.601562 C 1.558594 3.601562 1.199219 3.199219 1.199219 2.71875 Z M 0.800781 12.398438 L 3.878906 12.398438 C 3.960938 12.398438 4 12.441406 4 12.519531 L 4 20.28125 C 4 20.359375 3.960938 20.398438 3.878906 20.398438 L 0.800781 20.398438 Z M 23.199219 14 L 19.199219 14 C 18.960938 14 18.800781 14.160156 18.800781 14.398438 C 18.800781 14.640625 18.960938 14.800781 19.199219 14.800781 L 23.199219 14.800781 L 23.199219 16 L 20 16 C 19.761719 16 19.601562 16.160156 19.601562 16.398438 C 19.601562 16.640625 19.761719 16.800781 20 16.800781 L 23.199219 16.800781 L 23.199219 18 L 21.199219 18 C 20.960938 18 20.800781 18.160156 20.800781 18.398438 C 20.800781 18.640625 20.960938 18.800781 21.199219 18.800781 L 23.199219 18.800781 L 23.199219 20.398438 L 16.921875 20.398438 C 16.839844 20.398438 16.800781 20.359375 16.800781 20.28125 L 16.800781 12.519531 C 16.800781 12.441406 16.839844 12.398438 16.921875 12.398438 L 23.199219 12.398438 Z M 16.921875 11.601562 C 16.398438 11.601562 16 12 16 12.519531 L 16 20.28125 C 16 20.800781 16.398438 21.199219 16.921875 21.199219 L 23.199219 21.199219 L 23.199219 22.761719 C 23.199219 22.960938 23.039062 23.160156 22.800781 23.160156 L 1.199219 23.160156 C 1 23.160156 0.800781 23 0.800781 22.761719 L 0.800781 21.199219 L 3.878906 21.199219 C 4.398438 21.199219 4.800781 20.800781 4.800781 20.28125 L 4.800781 12.519531 C 4.800781 12 4.398438 11.601562 3.878906 11.601562 L 0.800781 11.601562 L 0.800781 10 C 0.800781 9.800781 0.960938 9.601562 1.199219 9.601562 L 1.199219 9.640625 L 22.800781 9.640625 C 23 9.640625 23.199219 9.800781 23.199219 10.039062 L 23.199219 11.601562 Z M 16.921875 11.601562"/>
</svg>

<svg xmlns="http://www.w3.org/2000/svg" width="32" height="32" viewBox="0 0 24 24">
    <path d="M22.8 8.84h-.402V4.348c.692-.192 1.204-.852 1.204-1.63C23.602 1.923 23.039 0 22 0c-1.04 0-1.602 1.922-1.602 2.719 0 .777.512 1.437 1.204 1.629V8.84h-3.204V4.348c.692-.192 1.204-.852 1.204-1.63C19.602 1.923 19.039 0 18 0c-1.04 0-1.602 1.922-1.602 2.719 0 .777.512 1.437 1.204 1.629V8.84h-3.204V4.348c.692-.192 1.204-.852 1.204-1.63C15.602 1.923 15.039 0 14 0c-1.04 0-1.602 1.922-1.602 2.719 0 .777.512 1.437 1.204 1.629V8.84h-3.204V4.348c.692-.192 1.204-.852 1.204-1.63C11.602 1.923 11.039 0 10 0 8.96 0 8.398 1.922 8.398 2.719c0 .777.512 1.437 1.204 1.629V8.84H6.398V4.348c.692-.192 1.204-.852 1.204-1.63C7.602 1.923 7.039 0 6 0 4.96 0 4.398 1.922 4.398 2.719c0 .777.512 1.437 1.204 1.629V8.84H2.398V4.348c.692-.192 1.204-.852 1.204-1.63C3.602 1.923 3.039 0 2 0 .96 0 .398 1.922.398 2.719c0 .777.512 1.437 1.204 1.629V8.84h-.403C.56 8.84 0 9.36 0 10.04V22.8c0 .641.52 1.2 1.2 1.2h21.6c.641 0 1.2-.52 1.2-1.2V10.04c0-.642-.52-1.2-1.2-1.2zm-1.6-6.121c0-.88.6-1.918.8-1.918.2 0 .8 1.039.8 1.918 0 .48-.359.883-.8.883-.441 0-.8-.403-.8-.883zm-4 0c0-.88.6-1.918.8-1.918.2 0 .8 1.039.8 1.918 0 .48-.359.883-.8.883-.441 0-.8-.403-.8-.883zm-4 0c0-.88.6-1.918.8-1.918.2 0 .8 1.039.8 1.918 0 .48-.359.883-.8.883-.441 0-.8-.403-.8-.883zm-4 0c0-.88.6-1.918.8-1.918.2 0 .8 1.039.8 1.918 0 .48-.359.883-.8.883-.441 0-.8-.403-.8-.883zm-4 0C5.2 1.839 5.8.8 6 .8c.2 0 .8 1.039.8 1.918 0 .48-.359.883-.8.883-.441 0-.8-.403-.8-.883zm-4 0C1.2 1.839 1.8.8 2 .8c.2 0 .8 1.039.8 1.918 0 .48-.359.883-.8.883-.441 0-.8-.403-.8-.883zm-.4 9.68H3.88c.082 0 .121.042.121.12v7.762c0 .078-.04.117-.121.117H.8zM23.2 14h-4c-.24 0-.4.16-.4.398 0 .243.16.403.4.403h4V16H20c-.238 0-.398.16-.398.398 0 .243.16.403.398.403h3.2V18h-2c-.24 0-.4.16-.4.398 0 .243.16.403.4.403h2v1.597h-6.278c-.082 0-.121-.039-.121-.117V12.52c0-.079.039-.122.12-.122H23.2zm-6.278-2.398a.903.903 0 0 0-.922.918v7.761c0 .52.398.918.922.918h6.277v1.563a.4.4 0 0 1-.398.398H1.199a.4.4 0 0 1-.398-.398v-1.563h3.078c.52 0 .922-.398.922-.918V12.52a.906.906 0 0 0-.922-.918H.8V10a.4.4 0 0 1 .398-.398v.039h21.602a.4.4 0 0 1 .398.398v1.563zm0 0"/>
</svg>
